X: 762
T: Shiquan renxen
%%abc-version 2.0
%%abcx-abcm2ps-target-version 5.9.1 (29 Sep 2008)
%%abc-creator hum2abc beta
%%abcx-conversion-date 2013/10/02 07:52:30
%%abc-edited-by Helmut Schaffrath
%%humdrum-veritas 3344968315
%%humdrum-veritas-data 1975433181
%%continueall 1
%%barnumbers 0
L: 1/8
M: 4/4
K: G
A A d e/ d/ B A E D [I:setbarnb 1]| 
A A/ A/ G F/ E/D4 | 
A A d F A G F E | 
A G F ED4 | 
A GA2A d B d/ d/ | 
B A A dG2F E | 
A B d F A G F E | 
A G F ED4 | 
A B A dG4 |]  



